X: 192
T: 8.La Provencalle
T: la Proven\,calle
N: The 'c' in the title is missing its cedille.
B: Robert Landrin "Potpourri fran\,cois des contre-danse ancienne tel quil se danse chez la Reine ..." 1760 p.19 #2 dance 6 #8
S: http://memory.loc.gov/cgi-bin/query/D?musdibib:2:./temp/~ammem_EbRS:
Z: 2014 John Chambers <jc:trillian.mit.edu>
M: 2/2
L: 1/8
K: G
% - - - - - - - - - - - - - - - - - - - - - - - - -
D2 |\
D2G2 G2F2 | E2D2 E2F2 |\
GFGA G2D2 | D2G2 G2F2 |\
E2D2 E2F2 | G6 :|
|: "4.f."G2 |\
A2B2 c2B2 | A2G2 F2G2 |\
A2B2 c2B2 | A2D2 D2G2 |\
F2G2 AGFE | F2D2 D2G2 |\
F2G2 AGFE | D4 A4 |
A3G A2B2 | c4 B4 |\
A2G2 A2F2 | GFGA G2A2 |\
A3G A2B2 | c4 B4 |\
A2G2 A2F2 | G6 :|
% - - - - - - - - - - - - - - - - - - - - - - - - -

%%sep 1 1 500
%%sep 1 1 500
